resources/haticons/SVG/ideal.svg

<!-- Generated by IcoMoon.io -->
<svg version="1.1" xmlns="http://www.w3.org/2000/svg" width="24" height="24" viewBox="0 0 24 24">
<title>ideal</title>
<path fill="#c06" d="M0.975 2.61v18.782h11.411c6.89 0 10.64-3.21 10.64-9.415 0-6.377-4.064-9.367-10.64-9.367zM12.386 1.635c10.105 0 11.614 6.48 11.614 10.342 0 6.7-4.124 10.39-11.614 10.39h-12.386v-20.732zM2.506 13.357h3.653v6.503h-3.653zM6.602 10.082c0 1.254-1.016 2.27-2.27 2.27s-2.27-1.016-2.27-2.27v0c0-1.254 1.016-2.27 2.27-2.27s2.27 1.016 2.27 2.27v0zM7.998 9.025v2.12h0.65c0.45 0 0.867-0.13 0.867-1.077 0-0.924-0.463-1.043-0.867-1.043zM18.848 7.971h1.053v3.174h1.56c-0.428-5.758-4.958-7.002-9.074-7.002h-4.388v3.83h0.65c1.183 0 1.92 0.803 1.92 2.095 0 1.333-0.719 2.129-1.92 2.129h-0.65v7.665h4.388c6.692 0 9.021-3.107 9.103-7.665h-2.64zM15.918 10.329h0.76l-0.348-1.195h-0.063zM14.275 12.199l1.274-4.228h1.497l1.274 4.227h-1.095l-0.239-0.818h-1.376l-0.24 0.818zM13.77 11.145v1.052h-2.603v-4.224h2.519v1.052h-1.467v0.49h1.387v1.050h-1.386v0.58z"></path>
</svg>

<svg xmlns="http://www.w3.org/2000/svg" width="24" height="24"><path fill="#c06" d="M.975 2.61v18.782h11.411c6.89 0 10.64-3.21 10.64-9.415 0-6.377-4.064-9.367-10.64-9.367zm11.411-.975C22.491 1.635 24 8.115 24 11.977c0 6.7-4.124 10.39-11.614 10.39H0V1.635zm-9.88 11.722h3.653v6.503H2.506zm4.096-3.275a2.27 2.27 0 1 1-4.54 0 2.27 2.27 0 1 1 4.54 0zm1.396-1.057v2.12h.65c.45 0 .867-.13.867-1.077 0-.924-.463-1.043-.867-1.043zm10.85-1.054h1.053v3.174h1.56c-.428-5.758-4.958-7.002-9.074-7.002H7.999v3.83h.65c1.183 0 1.92.803 1.92 2.095 0 1.333-.719 2.129-1.92 2.129h-.65v7.665h4.388c6.692 0 9.021-3.107 9.103-7.665h-2.64zm-2.93 2.358h.76l-.348-1.195h-.063zm-1.643 1.87l1.274-4.228h1.497l1.274 4.227h-1.095l-.239-.818H15.61l-.24.818zm-.505-1.054v1.052h-2.603V7.973h2.519v1.052h-1.467v.49h1.387v1.05H12.22v.58z"/></svg>
